X:1
T:Title
%%score { ( 1 3 ) | ( 2 4 ) }
L:1/8
M:4/4
K:Bb
V:1 treble nm="Grand Piano"
V:3 treble 
V:2 bass 
V:4 bass 
V:1
 z4 z2[Q:1/4=100] [Bd]2 | [Bd]3 [Bd] [Bd]2 [Bd]2 | [Be]3 [Be] [Be]2 [Bd]2 | %3
 [Ac]3 [Bd] [ce]2 [ce]2 |[M:3/4] [Bd]6 |[M:1/4] [Bd]2 |[M:4/4] [Bd]3 [Bd] [Bd]2 [Bd]2 | %7
 [Be]3 [Be] [Be]2 [c=e]2 | [cf]3 [cf] [c=e]2 c2 |[M:3/4] f6 |[M:1/4][K:bass] F,2 | %11
[M:4/4] z[K:treble] ddd [Bd]2 z2 | z [Bd][Bd][Bd] [Bd]2 [Bf]2 | [Be]3 [Be] [B=e]2 [Be]2 | %14
[M:3/4] [Af]6 |[M:1/4] z2 |[M:4/4] z [cf][cf][cf] [Bf]2[K:bass] B,,2 | %17
[M:9/8] z[K:treble] ee [Bd] [eg]2- [eg] [_dg]2 |[M:4/4] [df]3 [cf] [Bf]2 [Ae]2 |[M:3/4] [Bd]6 |] %20
V:2
 z4 z2 [B,,F,]2 | [B,,F,]3 [B,,F,] [B,,F,]2 [B,,F,]2 | [B,,G,]3 [B,,G,] [B,,G,]2 [B,,F,]2 | %3
 F,3 F, [F,A,]2 [F,A,]2 |[M:3/4] [B,,F,]6 |[M:1/4] [B,,F,]2 | %6
[M:4/4] [B,,F,]3 [B,,F,] [B,,F,]2 [B,,F,]2 | [E,G,]3 [E,G,] [E,G,]2 [C,B,]2 | %8
 [F,A,]3 [F,A,] [C,B,]2 [C,B,]2 |[M:3/4] [F,,A,c]6 |[M:1/4] z2 | %11
[M:4/4] z[K:treble] [B,B][B,B][B,B][K:bass] F, .E,3 | z F,F,[C,F,] [B,,F,]2 [D,F,]2 | %13
 [E,G,]3 [D,G,] [C,G,]2 [C,G,]2 |[M:3/4] F,6 |[M:1/4] F,2 |[M:4/4] z A,A,[E,A,] [D,B,]2 z2 | %17
[M:9/8] z[K:treble] [B,B][B,B][K:bass] [F,B,] [E,B,]2- [E,B,] [E,B,]2 | %18
[M:4/4] [F,B,]3 [E,A,] [D,B,]2 [C,F,]2 |[M:3/4] [B,,F,]6 |] %20
V:3
 x8 | x8 | x8 | x8 |[M:3/4] x6 |[M:1/4] x2 |[M:4/4] x8 | x8 | x8 |[M:3/4] x6 |[M:1/4][K:bass] x2 | %11
[M:4/4] F,4[K:treble] z4 | x8 | x8 |[M:3/4] x6 |[M:1/4] x2 |[M:4/4] x6[K:bass] x2 | %17
[M:9/8] .G,3[K:treble] z3 z3 |[M:4/4] x8 |[M:3/4] x6 |] %20
V:4
 x8 | x8 | x8 | x8 |[M:3/4] x6 |[M:1/4] x2 |[M:4/4] x8 | x8 | x8 |[M:3/4] x6 |[M:1/4] x2 | %11
[M:4/4] x[K:treble] x3[K:bass] x4 | D,4 z4 | x8 |[M:3/4] x6 |[M:1/4] x2 |[M:4/4] F,4 z4 | %17
[M:9/8] x[K:treble] x2[K:bass] x6 |[M:4/4] x8 |[M:3/4] x6 |] %20

